X:1
T:Title
%%score [ 1 2 3 4 ]
L:1/8
Q:1/4=120
M:4/4
K:A
V:1 treble nm="S."
V:2 treble nm="A."
V:3 treble-8 nm="T."
V:4 bass nm="B."
V:1
"^A Midsummer Night's Dream\nAct II scene ii""^Andante"!mf! A2 GA | %1
w: Ye spot- ted|
 (FG) A2 B2"^Ye spotted snakes" (cd) | (d2 c2) c3 c | %3
w: snakes * with dou- ble *|tongue, * thor- ny|
[M:4/4] (cB) (A"^Richard John Samuel Stevens\n(1757-1837)"G) G2 F2 | E2 z2 z4 | z8 | z2!p! B4 A2 | %7
w: hedge ~~- hogs, * be not|seen;||newts and|
 A2 G2 B2 B2 | B4!f! c3 c | (BG) (FE) A2 G2 | (G2"^- 2 -" F2) B2 F2 | (G^A) B2 B2 A2 | B4 z4 | z8 | %14
w: blind- worms, do no|wrong, come not|near * our * fai- ry|queen, * come not|near * our fai- ry|queen.||
 z8 | z8 | z4!p! (AG) (AF) | (G^A) B2 B2 A2 | B4"^cresc." (AG) (AF) | (G"^- 3 -"A) (Bc) G2 F2 | %20
w: ||sing * in *|our * sweet lul- la-|by, sing * in *|our * sweet * lul- la-|
 E2!p! GG AA FF | B2!pp! EE FF ^DD | E4!f! B2 (AG) | c2 (^de) F2 (GA) | (A2 G2) B2 (AG) | %25
w: by; lul- la, lul- la, lul- la-|by, lul- la, lul- la, lul- la-|by. Ne- ver *|harm, nor * spell nor *|charm, * come our *|
 c3 B (AG) (FE) | F4 B2 (AG) | c4 F2 B2 | (A2 !fermata!G2)!p! e2 e2 | e3 G"^- 4 -" AF E^D | %30
w: love- ly la * dy *|nigh; so, good *|night, so, good-|night, * so, good-|night, with lul- la, lul- la-|
 E2 GG AA FF | B2!pp! EE FF ^DD | E4 | z4 | z8 | z4"^un poco" E2!p! (F=G) | (A=G) (AF) (GF) (EA) | %37
w: by, lul- la, lul- la, lul- la-|by, lul- la, lul- la, lul- la-|by.|||Weav- ing *|spi * ders, * come * not *|
 (=G2 F2)!f! c4 | d3 c B2 A2 | B2 A2 z2!ff!"^- 5 -" A2 | B2 B2 A2 =G2 | F4!p! A2 A2 | %42
w: here; * hence,|hence, ye long- legg'd|spin- ners, ye|long- legg'd spin- ners,|hence! Bee- tles|
 B2 B2 =c2 d2 | e4 B2"^cresc." B2 | =c4 B4 | A6 A2 |{A} G4 B2 B2 | (=c2 d2 e2) (AB) | =c4 TB4 | %49
w: black, ap- proach not|near; worm nor|snail, do|no of-|fence, worm nor|snail, * * do *|no of-|
 !fermata!A4!p! E3 E | (FG) A2 B2 (cd) | (d2 c2)"^- 6 -" z4 | z8 | z4 (dc) (dB) | (c^d) e2 e2 d2 | %55
w: fence. Phi- lo-|mel, * with me- lo *|dy, *||sing * in *|our * sweet lul- la-|
 e4"^cresc." (dc) (dB) | (dc) (BA) A2 G2 | A2!p! EE FF GG | A2!pp! EE FF GG | A4!p! A2 (Bc) | %60
w: by, sing * in *|our * sweet * lul- la-|by; lul- la, lul- la, lul- la-|by, lul- la, lul- la, lul- la-|by. Ne- ver *|
 B2 B2 e3 d | (d2"^- 7 -" c2) A2 A2 | A2 (B c){e} d2 c2 | (c2 B2)"^un poco cresc." e2 (dc) | %64
w: harm, nor spell nor|charm, * come our|love- ly * la- dy|nigh; * so, good *|
 f4 B2 e2 | (d2 !fermata!c2)!p! e2 f2 | e3 c | dB AG | A2!pp! EE FF GG | A2 EE FF GG | A4 :| %71
w: night, so good-|night, * so, good-|night, with|lul- la, lul- la-|by, lul- la, lul- la, lul- la-|by, lul- la, lul- la, lul- la-|by.|
V:2
!mf! E2 EE | D2 E2 F2 G2 | A4 E2 E2 |[M:4/4] E2 (FE) E2 ^D2 | E2 z2 z4 | z2!p! A4 =G2 | %6
w: Ye spot- ted|snakes with dou- ble|tongue, thor- ny|hedge- hogs, * be not|seen;|newts and|
 =G2 F2 G2 F2 | F2 E2 A2 G2 | (G2 F2)!f! A3 E | E2 E2 ^D2 E2 | (E2 ^D2) F2 F2 | %11
w: blind- worms, newts and|blind- worms, do no|wrong, * come not|near our fai- ry|queen, * come not|
 E2 F2 (EF/G/) (FE) | (E2 ^D2)!p! B,3"^con espress." B, | (C^D) E2 F2 (GA) | (A2 G2) z4 | %15
w: near our fai * * ry *|queen. * Phi- lo-|mel, * with me- lo *|dy *|
 z4!p! (E^D) (EC) | ^D2 (E4 D2) | E2 F2 G2 F2 |"^cresc." (AF) (GE) C2 B,2 | E3 E E2 ^D2 | %20
w: sing * in *|our sweet *|lul- la- by, sing,|sing * in * our, in|our sweet lul- la-|
 E2!p! B,B, CC ^DD | E2 z2 z2!pp! B,B, | B,4!f! E2 (FG) | A2 E2 E2 ^D2 | E4 E2 (FG) | %25
w: by; lul- la, lul- la, lul- la-|by, lul- la-|by. Ne- ver *|harm, nor spell nor|charm, come our *|
 A2 E2 (^DE) (B,C) | (E2 ^D2) E2 E2 | E4 E2 ^D2 | !fermata!E4!p! E2 E2 | E3 E E2 B,2 | %30
w: love- ly la * dy *|nigh; * so, good-|night, so, good-|night, so, good-|night, with lul- la-|
 B,2 B,B, CC ^DD | E2 z2 z2!pp! B,B, | B,4 |"^un poco" B,2!p! (CD) | E2 C2 D2 B,2 | C4 C2 (DE) | %36
w: by, lul- la, lul- la, lul- la-|by, lul- la-|by.|Weav- ing *|spi- ders, come not|here, weav- ing *|
 (FE) (FD) (ED) (CE) | (E2 D2)!f! =G4 | F3 F D2 D2 | D2 D2!ff! D3 D | D2 E2 F2 E2 | D4!p! E2 A2 | %42
w: spi * ders, * come * not *|here; * hence,|hence, ye long- legg'd|spin- ners, hence, ye|long- legg'd spin- ners,|hence! Bee- tles|
 A2 G2 A2 A2 | (A2 G2) E2"^cresc." =F2 | E4 =F4 | E4 E4 | E4 E2 G2 | (A2 =G=F E2) F2 | E6 D2 | %49
w: black, ap- proach not|near; * worm nor|snail, do|no of-|fence, worm nor|snail, * * * do|no of-|
 !fermata!C4 z4 | z8 | z8 | z4!p! (AG) (AF) | G2 (A4 G2) | A2 B2 (AG) (AF) |"^cresc." G2 (A4 G2) | %56
w: fence.|||sing * in *|our sweet *|lul- la- by, * in *|our sweet, *|
 A2 F2 E3 D | C2!p! CC DD EE | C2!pp! CC DD EE | C4!p! E2 E2 | F2 F2 G2 G2 | A4 E2 F2 | %62
w: our sweet lul- la-|by; lul- la, lul- la, lul- la-|by, lul- la, lul- la, lul- la-|by. Ne- ver|harm, nor spell nor|charm, come our|
 E2 (GA) B2 A2 | (A2 G2)"^un poco cresc." A2 A2 | A4 E2 G2 | !fermata!A4!p! A2 A2 | A3 E | F2 E2 | %68
w: love- ly * la- dy|nigh; * so, good-|night, so good-|night, so, good-|night, with|lul- la-|
 E2!pp! CC DD EE | C2 CC DD EE | C4 :| %71
w: by, lul- la, lul- la, lul- la-|by, lul- la, lul- la, lul- la-|by.|
V:3
!mf! c2 dc | A2 A2 A2 e2 | e4 A2 A2 |[M:4/4][K:treble-8] B2 c2 B3 A | G2!p! e4 d2 | d2 c2 d2 B2 | %6
w: Ye spot- ted|snakes with dou- ble|tongue, thor- ny|hedge- hogs, be not|seen; newts and|blind- worms, newts and|
 e2 d2 e2 c2 | ^d2 e2 f2 e2 | (e2 ^d2)!f! e3 e | B2 B2 B2 B2 | B4 B3 B | B2 B2 c2 c2 | B4 z4 | z8 | %14
w: blind- worms, newts and|blind- worms, do no|wrong, * come not|near our fai- ry|queen, come not|near our fai- ry|queen.||
 z4!p! (GF) (GE) | F2 (B4 ^A2) | (BA) G2 F2 B2- | B4"^cresc." (e^d) (ec) | ^d2 (e4 d2) | %19
w: sing * in *|our sweet *|lul * la- by, sing,|* sing * in *|our sweet *|
 e2 (Gc) B3 A | G2 z2 z2!p! BB | B2!pp! GG AA FF | G4!f! (Bc) (^de) | e2 (^dc) B2 B2 | %24
w: lul- la, * lul- la-|by; lul- la-|by, lul- la, lul- la, lul- la-|by. Ne * ver *|harm, nor * spell nor|
 c4 (GB) (^de) | e3 B B3 ^A | B4 G2 (AB) | A4 B2 B2 | !fermata!c4!p! B2 c2 | B3 B cA GF | %30
w: charm, come * our *|love- ly la- dy|nigh; so, good *|night, so, good-|night, so, good-|night, with lul- la, lul- la-|
 G2 z2 z2 BB | B2!pp! GG AA FF | G4 |"^un poco" G2!p! (AB) | A3 A A2 G2 | A4 A3 =G | F2 B2 E2 A2 | %37
w: by, lul- la-|by, lul- la, lul- la, lul- la-|by.|Weav- ing *|spi- ders, come not|here, weav- ing|spi- ders, come not|
 D4!f! e4 | d3 A B2 d2 | d2 d2 z2!ff! F2 | =G2 G2 d2 A2 | A4!p! =c2 c2 | B2 e2 e2 d2 | %43
w: here; hence,|hence, ye long- legg'd|spin- ners, ye|long- legg'd spin- ners,|hence! Bee- tles|black, ap- proach not|
 (=c2 B2) =G2"^cresc." G2 | =G4 (B2 d2) | =c4 c4 | B4 G2 e2 | (e2 d2 =cB) A2 | A4 TG4 | %49
w: near; * worm nor|snail, do *|no of-|fence, worm nor|snail, * * * do|no of-|
 !fermata!A4 z4 | z8 | z4!p! (cB) (cA) | B2 (e4 ^d2) | (ed) c2 B2"^___" e2- |"^______" e4 c2 B2 | %55
w: fence.||sing * in *|our sweet *|lul * la- by, sing,|* sing in|
"^cresc." (dB) (cA) B3 e | (fe) (dc) c2 B2 | A2 z2 z2!p! BB | A2 z2 z2!pp! BB | A4!p! c2 (BA) | %60
w: our * sweet * lul- la,|our * sweet * lul- la-|by; lul- la-|by, lul- la-|by, Ne- ver *|
 d2 d2 B2 B2 | f4 c2 d2 | c2 e2 e2 e2 | e4"^un poco cresc." e2 e2 | d4 e2 B2 | %65
w: harm, nor spell nor|charm, come our|love- ly la- dy|nigh; so, good-|night, so good-|
 !fermata!A4!p! e2 d2 | e3 A | Ad cB | c2 z2 z2!pp! BB | A2 z2 z2 BB | A4 :| %71
w: night, so, good-|night, with|lul- la, lul- la-|by, lul- la-|by, lul- la-|by.|
V:4
!mf! A,,2 B,,C, | D,2 C,2 B,,2 E,2 | A,4 A,3 A, |[M:4/4] G,2 A,2 B,2 B,,2 | E,2 z2!p! F,3 B, | %5
w: Ye spot- ted|snakes with dou- ble|tongue, thor- ny|hedge- hogs, be not|seen; newts and|
 G,2 A,2 B,3 E, |"^This edition  Andrew Sims 2014" C,2 D,2 C,2 F,2 | B,2 C2 ^D2 E2 | %8
w: blind- worms, newts and|blind- worms, newts and|blind- worms, do no|
 B,4!f! A,3 A, | G,2 G,2 F,2 E,2 | B,,4 ^D,3 D, | E,2 ^D,2 B,,2 F,2 | B,,4 z4 | z8 | %14
w: wrong, come not|near our fai- ry|queen, come not|near our fai- ry|queen.||
 z4 z2!p!"^____" E,2- |"^___" E,2 ^D,2 C,4 | B,,8 | E,2 ^D,2 C,4 |"^cresc." B,,4 F,4 | %19
w: sing|* in our|sweet|lul- la- by,|sing in|
 (E,F,) (G,A,) B,2 B,,2 | E,2 z2 z2!p! B,B, | G,2 z2 z2!pp! B,,B,, | E,4!f! G,2 (F,E,) | %23
w: our * sweet * lul- la-|by; lul- la-|by, lul- la-|by. Ne- ver *|
 A,2 A,2 B,2 B,2 | C,4 G,2 (F,E,) | A,3 G, (F,E,) (^D,C,) | B,,4 G,2 (F,E,) | A,4 B,2 B,2 | %28
w: harm, nor spell nor|charm, come our *|love- ly la * dy *|nigh; so, good *|night, so, good-|
 !fermata!C,4!p! G,2 A,2 | G,3 E, A,2 B,2 | E,2 z2 z2 B,B, | G,2 z2 z2!pp! B,,B,, | E,4 | %33
w: night, so, good-|night, with lul- la-|by, lul- la-|by, lul- la-|by.|
"^un poco" E,3!p! D, | (C,B,,) (C,A,,) B,,2 E,2 | A,4 z4 | z8 | z4!f! A,4 | D,3 D, =G,2 F,2 | %39
w: Weav- ing|spi * ders, * come not|here;||hence,|hence, ye long- legg'd|
 =G,2 F,2 z2!ff! D,2 | =G,2 E,2 A,2 A,,2 | D,4!p! A,2 A,2 | E,2 E,2 A,2 =F,2 | %43
w: spin- ners, ye|long- legg'd spin- ners,|hence! Bee- tles|black, ap- proach not|
 E,4 E,2"^cresc." D,2 | =C,4 =G,4 | A,6 A,2 | E,4 E,2 E,2 | (A,,2 B,,2 =C,2) D,2 | E,6 E,2 | %49
w: near; worm nor|snail, do|no of-|fence, worm nor|snail, * * do|no of-|
 !fermata!A,,4 z4 | z8 | z4 z2!p! A,2- | A,2 G,2 F,4 | E,8 | A,2 G,2 F,4 |"^cresc." E,6 E,2 | %56
w: fence.||sing|* in our|sweet|lul- la- by,|sing in|
 A,2 D,2 E,2 E,2 | A,,2 z2 z2!p! E,E, | A,,2 z2 z2!pp! E,E, | A,,4!p! A,2 A,2 | A,2 A,2 G,2 E,2 | %61
w: our sweet lul- la-|by; lul- la-|by, lul- la-|by, Ne- ver|harm, nor spell nor|
 F,4 A,2 A,2 | (A,C) (B,A,) G,2 A,2 | E,4"^un poco cresc." C2 (B,A,) | D4 G,2 E,2 | %65
w: charm, come our|love * ly * la- dy|nigh; so, good *|night, so good-|
 !fermata!F,4!p! C2 D2 | C3 A, | D,2 E,2 | A,2 z2 z2!pp! E,E, | A,,2 z2 z2 E,E, | A,,4 :| %71
w: night, so, good-|night, with|lul- la-|by, lul- la-|by, lul- la-|by.|

